packages/ui-icons/svg/Line/compass.svg

<svg viewBox="0 0 1920 1920" xmlns="http://www.w3.org/2000/svg">
    <path d="M960 0c-29.455 0-53.333 23.878-53.333 53.333v164.425C755.322 243.149 640 374.774 640 533.333c0 35.57 5.803 69.784 16.515 101.748L142.857 1524.76c-78.897 136.66-32.076 311.4 104.579 390.3 16.399 9.46 37.368 3.84 46.835-12.55l297.82-515.84h314.576v106.66c0 29.46 23.878 53.34 53.333 53.34s53.33-23.88 53.33-53.34v-106.66h314.37l297.82 515.84c9.47 16.39 30.44 22.01 46.84 12.55 136.65-78.9 183.48-253.64 104.58-390.3l-513.53-889.454c10.76-32.028 16.59-66.319 16.59-101.973 0-158.559-115.32-290.184-266.67-315.575V53.333C1013.33 23.878 989.455 0 960 0Zm0 320c-117.821 0-213.333 95.513-213.333 213.333 0 117.821 95.512 213.334 213.333 213.334 117.82 0 213.33-95.513 213.33-213.334C1173.33 415.513 1077.82 320 960 320Zm0 533.333c19.41 0 38.417-1.728 56.87-5.039L1266.12 1280h-252.79v-106.67c0-29.45-23.875-53.33-53.33-53.33s-53.333 23.88-53.333 53.33V1280H653.675L902.94 848.261a321.882 321.882 0 0 0 57.06 5.072Zm714.09 919.967-555.41-962.015c31.59-18.077 59.81-41.387 83.47-68.748l482.41 835.563c36.56 63.32 30.04 139.7-10.47 195.2ZM235.233 1578.1l482.493-835.706c23.646 27.379 51.855 50.707 83.445 68.803L245.702 1773.3c-40.51-55.5-47.031-131.88-10.469-195.2Z" fill-rule="evenodd"/>
</svg>

<svg viewBox="0 0 1920 1920" version="1.1" xmlns="http://www.w3.org/2000/svg">
    <path d="M960,0 C930.545,0 906.667,23.8782 906.667,53.3333 L906.667,217.758 C755.322,243.149 640,374.774 640,533.333 C640,568.903 645.803,603.117 656.515,635.081 L142.857,1524.76 C63.9596,1661.42 110.781,1836.16 247.436,1915.06 C263.835,1924.52 284.804,1918.9 294.271,1902.51 L592.091,1386.67 L906.667,1386.67 L906.667,1493.33 C906.667,1522.79 930.545,1546.67 960,1546.67 C989.455,1546.67 1013.33,1522.79 1013.33,1493.33 L1013.33,1386.67 L1327.7,1386.67 L1625.52,1902.51 C1634.99,1918.9 1655.96,1924.52 1672.36,1915.06 C1809.01,1836.16 1855.84,1661.42 1776.94,1524.76 L1263.41,635.306 C1274.17,603.278 1280,568.987 1280,533.333 C1280,374.774 1164.68,243.149 1013.33,217.758 L1013.33,53.3333 C1013.33,23.8781 989.455,0 960,0 Z M960,320 C842.179,320 746.667,415.513 746.667,533.333 C746.667,651.154 842.179,746.667 960,746.667 C1077.82,746.667 1173.33,651.154 1173.33,533.333 C1173.33,415.513 1077.82,320 960,320 Z M960,853.333 C979.41,853.333 998.417,851.605 1016.87,848.294 L1266.12,1280 L1013.33,1280 L1013.33,1173.33 C1013.33,1143.88 989.455,1120 960,1120 C930.545,1120 906.667,1143.88 906.667,1173.33 L906.667,1280 L653.675,1280 L902.94,848.261 C921.456,851.594 940.525,853.333 960,853.333 Z M1674.09,1773.3 L1118.68,811.285 C1150.27,793.208 1178.49,769.898 1202.15,742.537 L1684.56,1578.1 C1721.12,1641.42 1714.6,1717.8 1674.09,1773.3 Z M235.233,1578.1 L717.726,742.394 C741.372,769.773 769.581,793.101 801.171,811.197 L245.702,1773.3 C205.192,1717.8 198.671,1641.42 235.233,1578.1 Z" stroke="none" stroke-width="1" fill-rule="evenodd"/>
</svg>
